assets/icons/24px/outline/circle-circle-down-24px.svg

<svg width="24" height="24" viewBox="0 0 24 24" fill="none" xmlns="http://www.w3.org/2000/svg">
<g clip-path="url(#clip0_821_19393)">
<g clip-path="url(#clip1_821_19393)">
<circle cx="12" cy="12" r="9" transform="rotate(-180 12 12)" stroke="white" stroke-width="2"/>
<path d="M13.696 14.2864L15.0875 12.06C15.9331 10.707 16.356 10.0305 16.0704 9.51523C15.7848 9 14.9871 9 13.3915 9L10.6085 9C9.01295 9 8.21517 9 7.92961 9.51523C7.64404 10.0305 8.06686 10.707 8.9125 12.06L10.304 14.2864C11.0652 15.5043 11.4458 16.1132 12 16.1132C12.5542 16.1132 12.9348 15.5043 13.696 14.2864Z" fill="white"/>
</g>
</g>
<defs>
<clipPath id="clip0_821_19393">
<rect width="24" height="24" fill="white"/>
</clipPath>
<clipPath id="clip1_821_19393">
<rect width="24" height="24" fill="white" transform="translate(24 24) rotate(-180)"/>
</clipPath>
</defs>
</svg>

<svg width="24" height="24" fill="none" xmlns="http://www.w3.org/2000/svg"><g clip-path="url(#clip0_821_19393)"><g clip-path="url(#clip1_821_19393)"><circle cx="12" cy="12" r="9" transform="rotate(-180 12 12)" stroke="#fff" stroke-width="2"/><path d="M13.696 14.286l1.392-2.226c.845-1.353 1.268-2.03.982-2.545C15.785 9 14.987 9 13.392 9h-2.784c-1.595 0-2.393 0-2.678.515-.286.515.137 1.192.982 2.545l1.392 2.226c.761 1.218 1.142 1.827 1.696 1.827s.935-.609 1.696-1.827z" fill="#fff"/></g></g><defs><clipPath id="clip0_821_19393"><path fill="#fff" d="M0 0H24V24H0z"/></clipPath><clipPath id="clip1_821_19393"><path fill="#fff" transform="rotate(-180 12 12)" d="M0 0H24V24H0z"/></clipPath></defs></svg>
